scalable/apps/com.jetbrains.DataGrip.svg

<?xml version="1.0" encoding="UTF-8" standalone="no"?>
<!-- Created with Inkscape (http://www.inkscape.org/) -->

<svg
   width="128"
   height="128"
   viewBox="0 0 128 128"
   version="1.1"
   id="svg5"
   inkscape:version="1.2.2 (b0a8486541, 2022-12-01)"
   sodipodi:docname="com.jetbrains.DataGrip.svg"
   xml:space="preserve"
   xmlns:inkscape="http://www.inkscape.org/namespaces/inkscape"
   xmlns:sodipodi="http://sodipodi.sourceforge.net/DTD/sodipodi-0.dtd"
   xmlns:xlink="http://www.w3.org/1999/xlink"
   xmlns="http://www.w3.org/2000/svg"
   xmlns:svg="http://www.w3.org/2000/svg"><sodipodi:namedview
     id="namedview7"
     pagecolor="#ffffff"
     bordercolor="#666666"
     borderopacity="1"
     inkscape:pageshadow="2"
     inkscape:pageopacity="0.0"
     inkscape:pagecheckerboard="true"
     inkscape:document-units="px"
     showgrid="false"
     inkscape:showpageshadow="false"
     showborder="true"
     inkscape:snap-page="true"
     inkscape:zoom="2.3071216"
     inkscape:cx="179.87782"
     inkscape:cy="68.050164"
     inkscape:window-width="1366"
     inkscape:window-height="731"
     inkscape:window-x="0"
     inkscape:window-y="0"
     inkscape:window-maximized="1"
     inkscape:current-layer="layer2"
     inkscape:deskcolor="#d1d1d1" /><defs
     id="defs2"><linearGradient
       inkscape:collect="always"
       id="linearGradient11616"><stop
         style="stop-color:#21d789;stop-opacity:1"
         offset="0"
         id="stop11612" /><stop
         style="stop-color:#5d6fe8;stop-opacity:1"
         offset="1"
         id="stop11614" /></linearGradient><linearGradient
       inkscape:collect="always"
       id="linearGradient404"><stop
         style="stop-color:#e6e6e6;stop-opacity:0.3461135;"
         offset="0"
         id="stop400" /><stop
         style="stop-color:#ffffff;stop-opacity:0.85306722;"
         offset="1"
         id="stop402" /></linearGradient><linearGradient
       y2="236"
       x2="96"
       y1="236"
       x1="32"
       gradientTransform="translate(604.81684,170.58641)"
       gradientUnits="userSpaceOnUse"
       id="linearGradient1099"
       xlink:href="#linearGradient1036" /><linearGradient
       id="linearGradient1036"><stop
         id="stop1032"
         offset="0"
         style="stop-color:#d5d3cf;stop-opacity:1;" /><stop
         id="stop1034"
         offset="1"
         style="stop-color:#f6f5f4;stop-opacity:1" /></linearGradient><radialGradient
       r="32"
       fy="-76"
       fx="-244"
       cy="-76"
       cx="-244"
       gradientTransform="matrix(0.88333331,0,0,0.88333331,-460.35018,463.11973)"
       gradientUnits="userSpaceOnUse"
       id="radialGradient1103"
       xlink:href="#linearGradient1069" /><linearGradient
       id="linearGradient1069"><stop
         id="stop1065"
         offset="0"
         style="stop-color:#d5d3cf;stop-opacity:1" /><stop
         id="stop1067-1"
         offset="1"
         style="stop-color:#949390;stop-opacity:1" /></linearGradient><linearGradient
       gradientUnits="userSpaceOnUse"
       y2="232"
       x2="64"
       y1="262.5"
       x1="64"
       id="linearGradient1027"
       xlink:href="#linearGradient1025"
       gradientTransform="translate(-470.5864,432.81685)" /><linearGradient
       id="linearGradient1025"><stop
         id="stop1021"
         offset="0"
         style="stop-color:#9a9996;stop-opacity:1" /><stop
         id="stop1023"
         offset="1"
         style="stop-color:#77767b;stop-opacity:1" /></linearGradient><inkscape:path-effect
       effect="spiro"
       id="path-effect35304-9"
       is_visible="true" /><clipPath
       clipPathUnits="userSpaceOnUse"
       id="clipPath1609-7"><path
         sodipodi:nodetypes="cccccc"
         inkscape:connector-curvature="0"
         id="path1611-5"
         d="m 252,116 28,-28 v -8 h -36 v 36 z"
         style="fill:#e74747;stroke:none;stroke-width:0.25px;stroke-linecap:butt;stroke-linejoin:miter;stroke-opacity:1" /></clipPath><linearGradient
       inkscape:collect="always"
       id="linearGradient8241"><stop
         style="stop-color:#397d86;stop-opacity:1;"
         offset="0"
         id="stop8237" /><stop
         style="stop-color:#3b99a9;stop-opacity:1;"
         offset="0.05"
         id="stop9349" /><stop
         style="stop-color:#2f7683;stop-opacity:1;"
         offset="0.1"
         id="stop21746" /><stop
         style="stop-color:#3b5395;stop-opacity:1;"
         offset="0.89999998"
         id="stop21940" /><stop
         style="stop-color:#4d71c4;stop-opacity:1;"
         offset="0.94999999"
         id="stop9351" /><stop
         style="stop-color:#3f5994;stop-opacity:1;"
         offset="1"
         id="stop8239" /></linearGradient><radialGradient
       r="32"
       fy="-76"
       fx="-244"
       cy="-76"
       cx="-244"
       gradientTransform="matrix(0.88333331,0,0,0.88333331,-460.35018,463.11973)"
       gradientUnits="userSpaceOnUse"
       id="radialGradient1103-5"
       xlink:href="#linearGradient1069" /><inkscape:path-effect
       effect="spiro"
       id="path-effect35304-9-2"
       is_visible="true" /><clipPath
       clipPathUnits="userSpaceOnUse"
       id="clipPath1609-7-7"><path
         sodipodi:nodetypes="cccccc"
         inkscape:connector-curvature="0"
         id="path1611-5-0"
         d="m 252,116 28,-28 v -8 h -36 v 36 z"
         style="fill:#e74747;stroke:none;stroke-width:0.25px;stroke-linecap:butt;stroke-linejoin:miter;stroke-opacity:1" /></clipPath><clipPath
       clipPathUnits="userSpaceOnUse"
       id="clipPath744"><rect
         style="fill:#1e88e5;fill-opacity:1;stroke-width:0.264583"
         id="rect746"
         width="541.86664"
         height="541.86664"
         x="0"
         y="1.5987212e-14"
         rx="79.375"
         ry="79.375" /></clipPath><clipPath
       clipPathUnits="userSpaceOnUse"
       id="clipPath62"><rect
         style="fill:#1e88e5;fill-opacity:1;stroke-width:0.264583"
         id="rect64"
         width="541.86664"
         height="541.86664"
         x="2.2507105e-05"
         y="-0.42205024"
         rx="79.375"
         ry="79.375" /></clipPath><linearGradient
       inkscape:collect="always"
       xlink:href="#linearGradient8241"
       id="linearGradient8243"
       x1="11.5"
       y1="120.5"
       x2="116.5"
       y2="120.5"
       gradientUnits="userSpaceOnUse" /><radialGradient
       r="32"
       fy="-76"
       fx="-244"
       cy="-76"
       cx="-244"
       gradientTransform="matrix(0.88333331,0,0,0.88333331,-460.35018,463.11973)"
       gradientUnits="userSpaceOnUse"
       id="radialGradient1103-6"
       xlink:href="#linearGradient1069" /><inkscape:path-effect
       effect="spiro"
       id="path-effect35304-9-20"
       is_visible="true" /><clipPath
       clipPathUnits="userSpaceOnUse"
       id="clipPath1609-7-2"><path
         sodipodi:nodetypes="cccccc"
         inkscape:connector-curvature="0"
         id="path1611-5-3"
         d="m 252,116 28,-28 v -8 h -36 v 36 z"
         style="fill:#e74747;stroke:none;stroke-width:0.25px;stroke-linecap:butt;stroke-linejoin:miter;stroke-opacity:1" /></clipPath><radialGradient
       r="32"
       fy="-76"
       fx="-244"
       cy="-76"
       cx="-244"
       gradientTransform="matrix(0.88333331,0,0,0.88333331,-460.35018,463.11973)"
       gradientUnits="userSpaceOnUse"
       id="radialGradient1103-56"
       xlink:href="#linearGradient1069" /><inkscape:path-effect
       effect="spiro"
       id="path-effect35304-9-7"
       is_visible="true" /><clipPath
       clipPathUnits="userSpaceOnUse"
       id="clipPath1609-7-0"><path
         sodipodi:nodetypes="cccccc"
         inkscape:connector-curvature="0"
         id="path1611-5-9"
         d="m 252,116 28,-28 v -8 h -36 v 36 z"
         style="fill:#e74747;stroke:none;stroke-width:0.25px;stroke-linecap:butt;stroke-linejoin:miter;stroke-opacity:1" /></clipPath><clipPath
       clipPathUnits="userSpaceOnUse"
       id="clipPath37"><rect
         style="fill:#1a1a1a;fill-opacity:1;stroke-width:0.264583"
         id="rect39"
         width="541.86664"
         height="541.86664"
         x="-2.6626146e-06"
         y="3.2408705"
         rx="79.375"
         ry="79.375" /></clipPath><clipPath
       clipPathUnits="userSpaceOnUse"
       id="clipPath22042"><rect
         style="fill:#333333;fill-opacity:1;stroke-width:0.0133797"
         id="rect22044"
         width="27.31955"
         height="27.483929"
         x="166.96844"
         y="105.40438"
         rx="4.0018873"
         ry="4.0259666" /></clipPath><clipPath
       clipPathUnits="userSpaceOnUse"
       id="clipPath1039"><rect
         style="fill:#b3b3b3;fill-opacity:1;stroke-width:0.264583"
         id="rect1041"
         width="541.8667"
         height="541.86682"
         x="2.5931527e-05"
         y="-0.00010962487"
         rx="79.375008"
         ry="79.375031" /></clipPath><clipPath
       clipPathUnits="userSpaceOnUse"
       id="clipPath154"><rect
         style="fill:#b3b3b3;fill-opacity:1;stroke-width:0.264583"
         id="rect156"
         width="541.8667"
         height="541.86682"
         x="-2.9218751e-05"
         y="-0.00016368683"
         rx="79.375008"
         ry="79.375031" /></clipPath><linearGradient
       inkscape:collect="always"
       xlink:href="#linearGradient404"
       id="linearGradient406"
       x1="64"
       y1="112.5"
       x2="64"
       y2="7.5"
       gradientUnits="userSpaceOnUse" /><linearGradient
       id="a"
       gradientUnits="userSpaceOnUse"
       x1="38.779999"
       x2="95.910004"
       y1="41.59"
       y2="41.59"
       gradientTransform="translate(260.42503,-3.53)"><stop
         offset="0"
         stop-color="#21d789"
         id="stop500" /><stop
         offset="1"
         stop-color="#07c3f2"
         id="stop502" /></linearGradient><linearGradient
       id="b"
       gradientUnits="userSpaceOnUse"
       x1="-29.18"
       x2="88.459999"
       y1="85.519997"
       y2="-1.3200001"
       gradientTransform="translate(260.42503,-3.53)"><stop
         offset=".01"
         stop-color="#fcf84a"
         id="stop505" /><stop
         offset=".11"
         stop-color="#a7eb62"
         id="stop507" /><stop
         offset=".21"
         stop-color="#5fe077"
         id="stop509" /><stop
         offset=".27"
         stop-color="#32da84"
         id="stop511" /><stop
         offset=".31"
         stop-color="#21d789"
         id="stop513" /><stop
         offset=".58"
         stop-color="#21d789"
         id="stop515" /><stop
         offset=".6"
         stop-color="#21d789"
         id="stop517" /><stop
         offset=".69"
         stop-color="#20d68c"
         id="stop519" /><stop
         offset=".76"
         stop-color="#1ed497"
         id="stop521" /><stop
         offset=".83"
         stop-color="#19d1a9"
         id="stop523" /><stop
         offset=".9"
         stop-color="#13ccc2"
         id="stop525" /><stop
         offset=".97"
         stop-color="#0bc6e1"
         id="stop527" /><stop
         offset="1"
         stop-color="#07c3f2"
         id="stop529" /></linearGradient><linearGradient
       id="c"
       gradientUnits="userSpaceOnUse"
       x1="17.299999"
       x2="36.919998"
       y1="110.99"
       y2="49.419998"
       gradientTransform="translate(260.42503,-3.53)"><stop
         offset="0"
         stop-color="#21d789"
         id="stop532" /><stop
         offset=".16"
         stop-color="#24d888"
         id="stop534" /><stop
         offset=".3"
         stop-color="#2fd985"
         id="stop536" /><stop
         offset=".43"
         stop-color="#41dc80"
         id="stop538" /><stop
         offset=".55"
         stop-color="#5ae079"
         id="stop540" /><stop
         offset=".67"
         stop-color="#7ae46f"
         id="stop542" /><stop
         offset=".79"
         stop-color="#a1ea64"
         id="stop544" /><stop
         offset=".9"
         stop-color="#cff157"
         id="stop546" /><stop
         offset="1"
         stop-color="#fcf84a"
         id="stop548" /></linearGradient><linearGradient
       id="d"
       gradientUnits="userSpaceOnUse"
       x1="43.279999"
       x2="85.970001"
       y1="57.459999"
       y2="0.059999999"
       gradientTransform="translate(260.42503,-3.53)"><stop
         offset="0"
         stop-color="#21d789"
         id="stop551" /><stop
         offset=".09"
         stop-color="#23d986"
         id="stop553" /><stop
         offset=".17"
         stop-color="#2ade7b"
         id="stop555" /><stop
         offset=".25"
         stop-color="#36e669"
         id="stop557" /><stop
         offset=".27"
         stop-color="#3bea62"
         id="stop559" /><stop
         offset=".35"
         stop-color="#47eb61"
         id="stop561" /><stop
         offset=".49"
         stop-color="#67ed5d"
         id="stop563" /><stop
         offset=".69"
         stop-color="#9af156"
         id="stop565" /><stop
         offset=".92"
         stop-color="#e0f64d"
         id="stop567" /><stop
         offset="1"
         stop-color="#fcf84a"
         id="stop569" /></linearGradient><linearGradient
       id="e"
       gradientUnits="userSpaceOnUse"
       x1="108.58"
       x2="22.549999"
       y1="64.769997"
       y2="63.970001"
       gradientTransform="translate(260.42503,-3.53)"><stop
         offset=".39"
         stop-color="#fcf84a"
         id="stop572" /><stop
         offset=".46"
         stop-color="#ecf74c"
         id="stop574" /><stop
         offset=".61"
         stop-color="#c1f451"
         id="stop576" /><stop
         offset=".82"
         stop-color="#7eef5a"
         id="stop578" /><stop
         offset="1"
         stop-color="#3bea62"
         id="stop580" /></linearGradient><linearGradient
       inkscape:collect="always"
       xlink:href="#linearGradient11616"
       id="linearGradient11827"
       x1="12.772857"
       y1="20.474716"
       x2="108.02944"
       y2="115.7313"
       gradientUnits="userSpaceOnUse" /><filter
       height="1.6857143"
       width="1.6857143"
       y="-0.34285714"
       x="-0.34285714"
       style="color-interpolation-filters:sRGB;"
       inkscape:label="Blur"
       id="filter13914"><feGaussianBlur
         stdDeviation="15 15"
         result="blur"
         id="feGaussianBlur13908" /><feColorMatrix
         values="1 0 0 0 0 0 1 0 0 0 0 0 1 0 0 0 0 0 50 0 "
         result="colormatrix"
         id="feColorMatrix13910" /><feComposite
         in="colormatrix"
         in2="SourceGraphic"
         operator="in"
         id="feComposite13912" /></filter><linearGradient
       id="e-3"
       gradientUnits="userSpaceOnUse"
       x1="10.99"
       x2="95.540001"
       y1="41.310001"
       y2="41.310001"
       gradientTransform="translate(215.79969,33.754665)"><stop
         offset=".31"
         stop-color="#21d789"
         id="stop274" /><stop
         offset=".49"
         stop-color="#59a3b2"
         id="stop276" /><stop
         offset=".77"
         stop-color="#b74af7"
         id="stop278" /><stop
         offset="1"
         stop-color="#ff45ed"
         id="stop280" /></linearGradient><linearGradient
       id="d-6"
       gradientUnits="userSpaceOnUse"
       x1="10.48"
       x2="94.599998"
       y1="52.509998"
       y2="98.959999"
       gradientTransform="translate(215.79969,33.754665)"><stop
         offset=".08"
         stop-color="#21d789"
         id="stop269" /><stop
         offset=".89"
         stop-color="#6b57ff"
         id="stop271" /></linearGradient><linearGradient
       id="c-7"
       gradientUnits="userSpaceOnUse"
       x1="27.620001"
       x2="34.52"
       y1="52.970001"
       y2="83.010002"
       gradientTransform="translate(215.79969,33.754665)"><stop
         offset="0"
         stop-color="#6b57ff"
         id="stop256" /><stop
         offset=".02"
         stop-color="#685cfb"
         id="stop258" /><stop
         offset=".28"
         stop-color="#4a91ca"
         id="stop260" /><stop
         offset=".51"
         stop-color="#34b7a7"
         id="stop262" /><stop
         offset=".69"
         stop-color="#26ce91"
         id="stop264" /><stop
         offset=".8"
         stop-color="#21d789"
         id="stop266" /></linearGradient><linearGradient
       id="b-5"
       gradientUnits="userSpaceOnUse"
       x1="66.849998"
       x2="73.949997"
       y1="30.120001"
       y2="11.96"
       gradientTransform="translate(215.79969,33.754665)"><stop
         offset="0"
         stop-color="#6b57ff"
         id="stop251" /><stop
         offset=".95"
         stop-color="#21d789"
         id="stop253" /></linearGradient><linearGradient
       id="a-3"
       gradientUnits="userSpaceOnUse"
       x1="92.389999"
       x2="95.190002"
       y1="40.619999"
       y2="65.059998"
       gradientTransform="translate(215.79969,33.754665)"><stop
         offset=".16"
         stop-color="#21d789"
         id="stop244" /><stop
         offset=".54"
         stop-color="#419fbc"
         id="stop246" /><stop
         offset="1"
         stop-color="#6b57ff"
         id="stop248" /></linearGradient><clipPath
       clipPathUnits="userSpaceOnUse"
       id="clipPath449"><rect
         style="fill:url(#linearGradient453);fill-opacity:1;stroke-width:1.0374"
         id="rect451"
         width="105"
         height="113"
         x="11.499997"
         y="7.5"
         rx="13"
         ry="13.990477" /></clipPath><linearGradient
       inkscape:collect="always"
       xlink:href="#linearGradient8241"
       id="linearGradient453"
       gradientUnits="userSpaceOnUse"
       gradientTransform="matrix(1,0,0,1.0761905,-3.1292439e-6,-9.1809524)"
       x1="11.5"
       y1="120.5"
       x2="116.5"
       y2="120.5" /></defs><g
     inkscape:groupmode="layer"
     id="layer2"
     inkscape:label="Layer 1"><g
       id="g12211"><rect
         style="fill:url(#linearGradient8243);fill-opacity:1"
         id="rect440"
         width="105"
         height="105"
         x="11.5"
         y="15.5"
         rx="13"
         ry="13" /><g
         id="g6177"
         style="filter:url(#filter13914)"
         clip-path="url(#clipPath449)"><rect
           style="fill:url(#linearGradient11827);fill-opacity:1"
           id="rect358"
           width="105"
           height="105"
           x="11.5"
           y="7.5"
           rx="13"
           ry="13" /><circle
           style="fill:#f646ee;fill-opacity:1;stroke:none;stroke-width:2.72942;stroke-linecap:round"
           id="path11472"
           cx="86.32856"
           cy="37.671436"
           r="28.048391" /></g><path
         id="rect364"
         style="fill:url(#linearGradient406);fill-opacity:1"
         d="M 24.5 7.5 C 17.298007 7.5 11.5 13.298007 11.5 20.5 L 11.5 99.5 C 11.5 106.70199 17.298007 112.5 24.5 112.5 L 103.5 112.5 C 110.70199 112.5 116.5 106.70199 116.5 99.5 L 116.5 20.5 C 116.5 13.298007 110.70199 7.5 103.5 7.5 L 24.5 7.5 z M 25.623047 9.6230469 L 102.37695 9.6230469 C 109.02495 9.6230469 114.37695 14.975054 114.37695 21.623047 L 114.37695 98.376953 C 114.37695 105.02495 109.02495 110.37695 102.37695 110.37695 L 25.623047 110.37695 C 18.975054 110.37695 13.623047 105.02495 13.623047 98.376953 L 13.623047 21.623047 C 13.623047 14.975054 18.975054 9.6230469 25.623047 9.6230469 z " /><path
         id="path283"
         style="fill:#000000;fill-opacity:1;stroke-width:0.8"
         d="m 70.35269,21.75901 -7.66876,6.365626 -36.74062,-5.820313 v 34.903125 l 14.4,11.473437 v 0.0047 L 35.17612,64.568398 26.60737,90.335584 77.84018,98.55902 59.64643,84.063714 h 0.002 L 77.84061,98.55902 81.85155,84.063714 h 6.49219 V 78.65121 l 4.24844,1.460936 5.25625,-46.417185 z m 27.49531,11.935938 -4.15157,36.704688 9.04688,-5.264064 z" /><g
         fill="#ffffff"
         id="g301"
         transform="matrix(0.8,0,0,0.8,22.344,18.159617)"><path
           d="m 28.59,30.18 h 9.69 c 7.8,0 13.2,5.36 13.2,12.35 v 0.07 c 0,7 -5.4,12.42 -13.2,12.42 h -9.69 z m 5.46,4.93 v 15 h 4.23 a 7.08,7.08 0 0 0 7.48,-7.42 V 42.6 a 7.13,7.13 0 0 0 -7.48,-7.49 z"
           id="path295" /><path
           d="M 52.45,42.67 V 42.6 a 12.75,12.75 0 0 1 13,-12.85 13.63,13.63 0 0 1 9.76,3.41 l -3.44,4.15 a 9.18,9.18 0 0 0 -6.49,-2.52 c -4,0 -7.14,3.52 -7.14,7.74 v 0.07 c 0,4.54 3.13,7.88 7.53,7.88 A 8.73,8.73 0 0 0 70.83,49 v -3.56 h -5.5 V 40.72 H 76.12 V 51.51 A 16.09,16.09 0 0 1 65.51,55.45 C 57.77,55.45 52.45,50 52.45,42.67 Z"
           id="path297" /><path
           d="m 28.02,71.12 h 22.5 v 3.75 h -22.5 z"
           id="path299" /></g></g></g></svg>

<svg xmlns="http://www.w3.org/2000/svg" xmlns:xlink="http://www.w3.org/1999/xlink" xml:space="preserve" width="128" height="128" viewBox="0 0 128 128">
    <defs>
        <linearGradient id="c">
            <stop offset="0" style="stop-color:#21d789;stop-opacity:1"/>
            <stop offset="1" style="stop-color:#5d6fe8;stop-opacity:1"/>
        </linearGradient>
        <linearGradient id="b">
            <stop offset="0" style="stop-color:#e6e6e6;stop-opacity:.3461135"/>
            <stop offset="1" style="stop-color:#fff;stop-opacity:.85306722"/>
        </linearGradient>
        <linearGradient id="a">
            <stop offset="0" style="stop-color:#397d86;stop-opacity:1"/>
            <stop offset=".05" style="stop-color:#3b99a9;stop-opacity:1"/>
            <stop offset=".1" style="stop-color:#2f7683;stop-opacity:1"/>
            <stop offset=".9" style="stop-color:#3b5395;stop-opacity:1"/>
            <stop offset=".95" style="stop-color:#4d71c4;stop-opacity:1"/>
            <stop offset="1" style="stop-color:#3f5994;stop-opacity:1"/>
        </linearGradient>
        <linearGradient xlink:href="#a" id="e" x1="11.5" x2="116.5" y1="120.5" y2="120.5" gradientUnits="userSpaceOnUse"/>
        <linearGradient xlink:href="#b" id="m" x1="64" x2="64" y1="112.5" y2="7.5" gradientUnits="userSpaceOnUse"/>
        <linearGradient xlink:href="#c" id="l" x1="12.773" x2="108.029" y1="20.475" y2="115.731" gradientUnits="userSpaceOnUse"/>
        <linearGradient xlink:href="#a" id="d" x1="11.5" x2="116.5" y1="120.5" y2="120.5" gradientTransform="matrix(1 0 0 1.0762 0 -9.181)" gradientUnits="userSpaceOnUse"/>
        <clipPath id="f" clipPathUnits="userSpaceOnUse">
            <rect width="105" height="113" x="11.5" y="7.5" rx="13" ry="13.99" style="fill:url(#d);fill-opacity:1;stroke-width:1.0374"/>
        </clipPath>
        <filter id="j" width="1.686" height="1.686" x="-.343" y="-.343" style="color-interpolation-filters:sRGB">
            <feGaussianBlur result="blur" stdDeviation="15 15"/>
            <feColorMatrix result="colormatrix" values="1 0 0 0 0 0 1 0 0 0 0 0 1 0 0 0 0 0 50 0"/>
            <feComposite in="colormatrix" in2="SourceGraphic" operator="in"/>
        </filter>
    </defs>
    <rect width="105" height="105" x="11.5" y="15.5" rx="13" ry="13" style="fill:url(#e);fill-opacity:1"/>
    <g clip-path="url(#f)" style="filter:url(#j)">
        <rect width="105" height="105" x="11.5" y="7.5" rx="13" ry="13" style="fill:url(#l);fill-opacity:1"/>
        <circle cx="86.329" cy="37.671" r="28.048" style="fill:#f646ee;fill-opacity:1;stroke:none;stroke-width:2.72942;stroke-linecap:round"/>
    </g>
    <path d="M24.5 7.5c-7.202 0-13 5.798-13 13v79c0 7.202 5.798 13 13 13h79c7.202 0 13-5.798 13-13v-79c0-7.202-5.798-13-13-13zm1.123 2.123h76.754c6.648 0 12 5.352 12 12v76.754c0 6.648-5.352 12-12 12H25.623c-6.648 0-12-5.352-12-12V21.623c0-6.648 5.352-12 12-12" style="fill:url(#m);fill-opacity:1"/>
    <path d="m70.353 21.759-7.67 6.366-36.74-5.82v34.902l14.4 11.474v.005l-5.167-4.118-8.569 25.768 51.233 8.223-18.194-14.495h.002l18.193 14.495 4.01-14.495h6.493V78.65l4.248 1.461 5.256-46.417zm27.495 11.936L93.696 70.4l9.047-5.264z" style="fill:#000;fill-opacity:1;stroke-width:.8"/>
    <path fill="#fff" d="M45.216 42.304h7.752c6.24 0 10.56 4.288 10.56 9.88v.056c0 5.6-4.32 9.936-10.56 9.936h-7.752zm4.368 3.944v12h3.384a5.664 5.664 0 0 0 5.984-5.936v-.072a5.704 5.704 0 0 0-5.984-5.992zm14.72 6.048v-.056a10.2 10.2 0 0 1 10.4-10.28 10.9 10.9 0 0 1 7.808 2.728l-2.752 3.32a7.34 7.34 0 0 0-5.192-2.016c-3.2 0-5.712 2.816-5.712 6.192v.056c0 3.632 2.504 6.304 6.024 6.304a7 7 0 0 0 4.128-1.184v-2.848h-4.4v-3.776h8.632v8.632a12.87 12.87 0 0 1-8.488 3.152c-6.192 0-10.448-4.36-10.448-10.224M44.76 75.056h18v3h-18z"/>
</svg>
